packages/core/src/svgs/tokens/branded/SIX.svg

<svg width="24" height="24" viewBox="0 0 24 24" fill="none" xmlns="http://www.w3.org/2000/svg">
<path d="M18.0001 5.34502V8.83152C18.0001 9.20652 17.7211 9.16302 17.583 9.09452C17.1321 8.87652 16.2786 8.41603 16.1491 8.35352C16.0191 8.29052 15.9975 8.12352 16.0001 8.04853V6.15752C15.987 5.86552 15.8381 5.75253 15.7681 5.73252C14.699 5.19902 12.4261 4.12252 12.2406 4.04552C12.0551 3.96902 11.8391 4.01352 11.7541 4.04552C10.7071 4.56302 8.46959 5.61852 8.26408 5.73202C8.05909 5.84552 7.99908 6.06302 8.00009 6.15752V10.356C8.00608 10.641 8.18209 10.767 8.26458 10.7946C9.36109 11.3295 11.6871 12.4186 11.815 12.4971C11.9436 12.5761 12.1536 12.53 12.2426 12.4971L12.6701 12.2755C12.8171 12.1835 12.991 12.237 13.0596 12.2755L14.7696 13.1295C14.9895 13.3 14.8611 13.4635 14.7696 13.5235C14.1386 13.8466 12.7861 14.5285 12.4261 14.6706C12.0656 14.8126 11.6651 14.7295 11.5101 14.6706C9.93659 13.8971 6.70859 12.2976 6.38409 12.0905C6.06008 11.8831 5.98909 11.4935 6.00008 11.3246V5.36302C6.01758 4.90102 6.39859 4.63502 6.58108 4.56002C8.08109 3.81353 11.1776 2.27602 11.5591 2.09802C11.9406 1.92051 12.3326 2.02402 12.4811 2.09802C14.0386 2.86352 17.24 4.44052 17.583 4.62553C17.9266 4.81002 18.0001 5.16002 18.0001 5.34502Z" fill="url(#paint0_linear_364_2461)"/>
<path d="M5.99973 18.6549V12.8385C5.99973 12.4634 6.27874 12.5065 6.41673 12.5754C6.86773 12.7935 7.72124 13.2404 7.85074 13.303C7.98073 13.3655 8.00223 13.533 7.99974 13.6079C7.99424 14.0355 7.98674 17.502 7.99974 17.7945C8.01273 18.0865 8.16174 18.1995 8.23174 18.2195L11.7278 19.9584C11.9127 20.0354 12.1292 19.9905 12.2137 19.9584L15.7738 18.22C15.9788 18.1065 16.0007 17.889 15.9998 17.7945C16.0022 16.5969 16.0052 13.7875 15.9998 13.5029C15.9937 13.218 15.8563 13.092 15.7738 13.064C14.6768 12.5295 12.3127 11.446 12.1848 11.367C12.0562 11.288 11.8462 11.334 11.7573 11.367L11.3297 11.5884C11.1827 11.6805 11.0088 11.6269 10.9403 11.5884L9.23023 10.7344C9.01023 10.564 9.13874 10.4005 9.23023 10.3404C9.86122 10.0175 11.2137 9.33547 11.5738 9.19347C11.9343 9.05147 12.3348 9.13447 12.4897 9.19347C14.0632 9.96699 17.2913 11.5665 17.6157 11.7735C17.9397 11.981 18.0107 12.4065 17.9998 12.5754V18.637C17.9823 19.099 17.6012 19.365 17.4188 19.44C15.9188 20.1865 12.8222 21.724 12.4407 21.902C12.0592 22.0794 11.6672 21.976 11.5187 21.902C9.96121 21.1364 6.75973 19.5594 6.41673 19.3745C6.07323 19.19 5.99474 18.8185 5.99973 18.6549Z" fill="url(#paint1_linear_364_2461)"/>
<path d="M9.00226 17.4745V14.6846C9.00226 14.447 9.13726 14.4911 9.22826 14.5316C10.0703 14.9086 11.7748 15.6716 11.8547 15.7116C11.9347 15.7505 12.0222 15.7276 12.0563 15.7116C12.8653 15.3591 14.5363 14.6301 14.7478 14.5316C14.9592 14.4336 15.0042 14.5926 15.0003 14.6841C14.9983 15.574 14.9953 17.3786 15.0003 17.4741C15.0047 17.5705 14.9347 17.646 14.8988 17.672C14.0338 18.0736 12.2738 18.8935 12.1498 18.9606C12.0257 19.0276 11.8853 18.9886 11.8308 18.9606C11.0142 18.5931 9.34076 17.8426 9.17677 17.7776C9.01276 17.7125 8.99176 17.5486 9.00226 17.4745Z" fill="#FDD35A"/>
<defs>
<linearGradient id="paint0_linear_364_2461" x1="12.0008" y1="9.11507" x2="12.0008" y2="21.9999" gradientUnits="userSpaceOnUse">
<stop stop-color="#25A7DF"/>
<stop offset="1" stop-color="#655BA7"/>
</linearGradient>
<linearGradient id="paint1_linear_364_2461" x1="12.0004" y1="9.11502" x2="12.0004" y2="21.9999" gradientUnits="userSpaceOnUse">
<stop stop-color="#25A7DF"/>
<stop offset="1" stop-color="#655BA7"/>
</linearGradient>
</defs>
</svg>

<svg xmlns="http://www.w3.org/2000/svg" width="24" height="24" fill="none" viewBox="0 0 24 24">
    <path fill="url(#SIX__a)" d="M18 5.345v3.487c0 .375-.279.331-.417.263-.45-.218-1.304-.679-1.434-.741-.13-.063-.152-.23-.149-.305V6.158c-.013-.292-.162-.405-.232-.425a159 159 0 0 0-3.527-1.687.73.73 0 0 0-.487 0c-1.047.517-3.284 1.573-3.49 1.686A.52.52 0 0 0 8 6.158v4.198c.006.285.182.411.265.439 1.096.534 3.422 1.624 3.55 1.702.129.08.339.033.428 0l.427-.222c.147-.091.321-.038.39 0l1.71.854c.22.171.091.335 0 .395-.631.323-1.984 1.005-2.344 1.147s-.76.059-.916 0c-1.573-.774-4.801-2.373-5.126-2.58-.324-.208-.395-.598-.384-.766V5.363c.018-.462.399-.728.581-.803 1.5-.746 4.597-2.284 4.978-2.462.382-.177.774-.074.922 0 1.558.766 4.759 2.343 5.102 2.528.344.184.417.534.417.719"/>
    <path fill="url(#SIX__b)" d="M6 18.655v-5.817c0-.375.279-.331.417-.263.45.219 1.304.665 1.434.728s.151.23.149.305c-.006.428-.013 3.894 0 4.186.013.293.162.406.232.425l3.496 1.74a.73.73 0 0 0 .486 0l3.56-1.739c.205-.113.227-.331.226-.425a767 767 0 0 0 0-4.292c-.006-.285-.144-.411-.226-.439-1.097-.534-3.461-1.618-3.59-1.697-.128-.079-.338-.033-.427 0l-.427.221c-.147.093-.321.039-.39 0l-1.71-.854c-.22-.17-.091-.334 0-.394.631-.322 1.984-1.005 2.344-1.147s.76-.059.916 0c1.573.774 4.801 2.374 5.126 2.58.324.208.395.633.384.802v6.062c-.018.462-.399.728-.581.803-1.5.746-4.597 2.284-4.978 2.462a1.14 1.14 0 0 1-.922 0c-1.558-.766-4.76-2.343-5.102-2.527-.344-.185-.422-.556-.417-.72"/>
    <path fill="#FDD35A" d="M9.002 17.475v-2.79c0-.238.135-.194.226-.153.842.377 2.547 1.14 2.627 1.18a.25.25 0 0 0 .201 0c.81-.353 2.48-1.082 2.692-1.18.211-.098.256.06.252.152-.002.89-.005 2.695 0 2.79s-.065.172-.101.198c-.865.402-2.625 1.221-2.75 1.289a.37.37 0 0 1-.318 0 256 256 0 0 0-2.654-1.183c-.164-.066-.185-.23-.175-.303"/>
    <defs>
        <linearGradient id="SIX__a" x1="12.001" x2="12.001" y1="9.115" y2="22" gradientUnits="userSpaceOnUse">
            <stop stop-color="#25A7DF"/>
            <stop offset="1" stop-color="#655BA7"/>
        </linearGradient>
        <linearGradient id="SIX__b" x1="12" x2="12" y1="9.115" y2="22" gradientUnits="userSpaceOnUse">
            <stop stop-color="#25A7DF"/>
            <stop offset="1" stop-color="#655BA7"/>
        </linearGradient>
    </defs>
</svg>
